static/img/kroki/447e9a6df1c038b641b9bfa2432018d2.svg

<?xml version="1.0" encoding="us-ascii" standalone="no"?><svg xmlns="http://www.w3.org/2000/svg" xmlns:xlink="http://www.w3.org/1999/xlink" contentStyleType="text/css" height="374px" preserveAspectRatio="none" style="width:231px;height:374px;" version="1.1" viewBox="0 0 231 374" width="231px" zoomAndPan="magnify"><defs/><g><!--class gcp_accelerator_type--><g id="elem_gcp_accelerator_type"><rect codeLine="23" fill="#3D176E" height="39.7891" id="gcp_accelerator_type" rx="2.5" ry="2.5" style="stroke:#000D19;stroke-width:0.5;" width="217" x="7" y="328.58"/><ellipse cx="22" cy="348.4745" fill="#ADD1B2" rx="11" ry="11" style="stroke:#181818;stroke-width:1.0;"/><path d="M24.9688,354.1152 Q24.3906,354.412 23.75,354.5527 Q23.1094,354.7089 22.4063,354.7089 Q19.9063,354.7089 18.5781,353.0683 Q17.2656,351.412 17.2656,348.287 Q17.2656,345.162 18.5781,343.5058 Q19.9063,341.8495 22.4063,341.8495 Q23.1094,341.8495 23.75,342.0058 Q24.4063,342.162 24.9688,342.4589 L24.9688,345.1777 Q24.3438,344.5995 23.75,344.3339 Q23.1563,344.0527 22.5313,344.0527 Q21.1875,344.0527 20.5,345.1308 Q19.8125,346.1933 19.8125,348.287 Q19.8125,350.3808 20.5,351.4589 Q21.1875,352.5214 22.5313,352.5214 Q23.1563,352.5214 23.75,352.2558 Q24.3438,351.9745 24.9688,351.3964 L24.9688,354.1152 Z " fill="#000000"/><text fill="#D9B8FF" font-family="Helvetica" font-size="17" lengthAdjust="spacing" textLength="175" x="41" y="354.3598">gcp_accelerator_type</text></g><!--class gcp_resource--><g id="elem_gcp_resource"><rect codeLine="26" fill="#3D176E" height="39.7891" id="gcp_resource" rx="2.5" ry="2.5" style="stroke:#000D19;stroke-width:0.5;" width="150" x="40.5" y="167.79"/><ellipse cx="55.5" cy="187.6845" fill="#ADD1B2" rx="11" ry="11" style="stroke:#181818;stroke-width:1.0;"/><path d="M58.4688,193.3252 Q57.8906,193.622 57.25,193.7627 Q56.6094,193.9189 55.9063,193.9189 Q53.4063,193.9189 52.0781,192.2783 Q50.7656,190.622 50.7656,187.497 Q50.7656,184.372 52.0781,182.7158 Q53.4063,181.0595 55.9063,181.0595 Q56.6094,181.0595 57.25,181.2158 Q57.9063,181.372 58.4688,181.6689 L58.4688,184.3877 Q57.8438,183.8095 57.25,183.5439 Q56.6563,183.2627 56.0313,183.2627 Q54.6875,183.2627 54,184.3408 Q53.3125,185.4033 53.3125,187.497 Q53.3125,189.5908 54,190.6689 Q54.6875,191.7314 56.0313,191.7314 Q56.6563,191.7314 57.25,191.4658 Q57.8438,191.1845 58.4688,190.6064 L58.4688,193.3252 Z " fill="#000000"/><text fill="#D9B8FF" font-family="Helvetica" font-size="17" lengthAdjust="spacing" textLength="108" x="74.5" y="193.5698">gcp_resource</text></g><!--class resource--><g id="elem_resource"><rect codeLine="29" fill="#3D176E" height="39.7891" id="resource" rx="2.5" ry="2.5" style="stroke:#000D19;stroke-width:0.5;" width="113" x="59" y="7"/><ellipse cx="74" cy="26.8945" fill="#ADD1B2" rx="11" ry="11" style="stroke:#181818;stroke-width:1.0;"/><path d="M76.9688,32.5352 Q76.3906,32.832 75.75,32.9727 Q75.1094,33.1289 74.4063,33.1289 Q71.9063,33.1289 70.5781,31.4883 Q69.2656,29.832 69.2656,26.707 Q69.2656,23.582 70.5781,21.9258 Q71.9063,20.2695 74.4063,20.2695 Q75.1094,20.2695 75.75,20.4258 Q76.4063,20.582 76.9688,20.8789 L76.9688,23.5977 Q76.3438,23.0195 75.75,22.7539 Q75.1563,22.4727 74.5313,22.4727 Q73.1875,22.4727 72.5,23.5508 Q71.8125,24.6133 71.8125,26.707 Q71.8125,28.8008 72.5,29.8789 Q73.1875,30.9414 74.5313,30.9414 Q75.1563,30.9414 75.75,30.6758 Q76.3438,30.3945 76.9688,29.8164 L76.9688,32.5352 Z " fill="#000000"/><text fill="#D9B8FF" font-family="Helvetica" font-size="17" lengthAdjust="spacing" textLength="71" x="93" y="32.7798">resource</text></g><!--reverse link gcp_resource to gcp_accelerator_type--><g id="link_gcp_resource_gcp_accelerator_type"><path codeLine="32" d="M115.5,225.84 C115.5,256.36 115.5,297.69 115.5,328.25 " fill="none" id="gcp_resource-backto-gcp_accelerator_type" style="stroke:#FFAF37;stroke-width:2.0;"/><polygon fill="none" points="115.5,207.84,109.5,225.84,121.5,225.84,115.5,207.84" style="stroke:#FFAF37;stroke-width:2.0;"/></g><!--reverse link resource to gcp_resource--><g id="link_resource_gcp_resource"><path codeLine="33" d="M115.5,65.05 C115.5,95.57 115.5,136.9 115.5,167.46 " fill="none" id="resource-backto-gcp_resource" style="stroke:#FFAF37;stroke-width:2.0;"/><polygon fill="none" points="115.5,47.05,109.5,65.05,121.5,65.05,115.5,47.05" style="stroke:#FFAF37;stroke-width:2.0;"/></g><!--SRC=[XP1BJyCm48Jl-HMMUewKK44QYKiR2S6bGfHxjR7NZPN4ZjOELNdyTmYbo7cqlSvykpkpXHB8i6xSWTLOvqWsiANI3H3KR4bazfcf3B6Pb23doT1yCDfT1TPG8tl4wWsTuZ0aNWl5IutMiXlFMW4lTsHQBOxh7O6sFnPgvr5P1TOkdIELjmwzC2BD5r8EoU7IsLp4oHsEC4C2wG-9eaZ4wH2vUkfYxtzYezwHnVxJriRXAERen2zrCML7U257HK_-sOpF88JIEtRhQI_7JAIHUlgc067s7IsXiluPwv3Gk4E3sQWLfWiXaqduwHmSyEvrRCURBN2E5H8uGzjkXdq4mPVd4rhJ4k_fVQr7tN-6OJYvE9XWJbBm3G00]--></g></svg>

<svg xmlns="http://www.w3.org/2000/svg" width="231" height="374" viewBox="0 0 231 374"><rect width="217" height="39.789" x="7" y="328.58" fill="#3D176E" rx="2.5" ry="2.5" style="stroke:#000d19;stroke-width:.5"/><circle cx="22" cy="348.474" r="11" fill="#ADD1B2" style="stroke:#181818;stroke-width:1"/><path d="M24.969 354.115q-.578.297-1.219.438-.64.156-1.344.156-2.5 0-3.828-1.64-1.312-1.657-1.312-4.782t1.312-4.781q1.328-1.656 3.828-1.656.703 0 1.344.156.656.156 1.219.453v2.719q-.625-.579-1.219-.844-.594-.281-1.219-.281-1.343 0-2.031 1.078-.687 1.062-.687 3.156t.687 3.172q.688 1.062 2.031 1.062.625 0 1.219-.265.594-.281 1.219-.86z"/><text x="41" y="354.36" fill="#D9B8FF" font-family="Helvetica" font-size="17" textLength="175">gcp_accelerator_type</text><rect width="150" height="39.789" x="40.5" y="167.79" fill="#3D176E" rx="2.5" ry="2.5" style="stroke:#000d19;stroke-width:.5"/><circle cx="55.5" cy="187.685" r="11" fill="#ADD1B2" style="stroke:#181818;stroke-width:1"/><path d="M58.469 193.325q-.578.297-1.219.438-.64.156-1.344.156-2.5 0-3.828-1.64-1.312-1.657-1.312-4.782t1.312-4.781q1.328-1.656 3.828-1.656.703 0 1.344.156.656.156 1.219.453v2.719q-.625-.578-1.219-.844-.594-.281-1.219-.281-1.343 0-2.031 1.078-.687 1.062-.687 3.156t.687 3.172q.688 1.062 2.031 1.062.625 0 1.219-.265.594-.281 1.219-.86z"/><text x="74.5" y="193.57" fill="#D9B8FF" font-family="Helvetica" font-size="17" textLength="108">gcp_resource</text><rect width="113" height="39.789" x="59" y="7" fill="#3D176E" rx="2.5" ry="2.5" style="stroke:#000d19;stroke-width:.5"/><circle cx="74" cy="26.895" r="11" fill="#ADD1B2" style="stroke:#181818;stroke-width:1"/><path d="M76.969 32.535q-.578.297-1.219.438-.64.156-1.344.156-2.5 0-3.828-1.64-1.312-1.657-1.312-4.782t1.312-4.781q1.328-1.656 3.828-1.656.703 0 1.344.156.656.156 1.219.453v2.719q-.625-.578-1.219-.844-.594-.281-1.219-.281-1.344 0-2.031 1.078-.687 1.062-.687 3.156t.687 3.172q.688 1.062 2.031 1.062.625 0 1.219-.265.594-.281 1.219-.86z"/><text x="93" y="32.78" fill="#D9B8FF" font-family="Helvetica" font-size="17" textLength="71">resource</text><path fill="none" d="M115.5 225.84v102.41m0-120.41-6 18h12zm0-142.79v102.41m0-120.41-6 18h12z" style="stroke:#ffaf37;stroke-width:2"/></svg>
